icon-themes/sifr_svg/cmd/sc_defaultcharstyle.svg

<svg viewBox="0 0 16 16" xmlns="http://www.w3.org/2000/svg"><path d="m5 3v2h5c.552285 0 1 .4477153 1 1v1h-5c-1.6568542 0-3 1.3431458-3 3 0 1.656854 1.3431458 3 3 3h7v-7c0-1.6568542-1.343146-3-3-3zm1 6h5v2h-5c-.5522847 0-1-.447715-1-1s.4477153-1 1-1z" fill="#555753"/></svg>

<svg xmlns="http://www.w3.org/2000/svg" viewBox="0 0 16 16">
  <path
     style="fill:#555753"
     d="M 5 3 L 5 5 L 10 5 C 10.552285 5 11 5.4477153 11 6 L 11 7 L 6 7 C 4.3431458 7 3 8.3431458 3 10 C 3 11.656854 4.3431458 13 6 13 L 13 13 L 13 6 C 13 4.3431458 11.656854 3 10 3 L 5 3 z M 6 9 L 11 9 L 11 11 L 6 11 C 5.4477153 11 5 10.552285 5 10 C 5 9.447715 5.4477153 9 6 9 z "
     />
</svg>
